school/img/country/CY.svg

<svg width="13" height="12" viewBox="0 0 13 12" fill="none" xmlns="http://www.w3.org/2000/svg">
<rect x="0.25" y="0.25" width="12.5" height="11.5" rx="1.75" fill="white" stroke="#F5F5F5" stroke-width="0.5"/>
<mask id="mask0" mask-type="alpha" maskUnits="userSpaceOnUse" x="0" y="0" width="13" height="12">
<rect x="0.25" y="0.25" width="12.5" height="11.5" rx="1.75" fill="white" stroke="white" stroke-width="0.5"/>
</mask>
<g mask="url(#mask0)">
<path fill-rule="evenodd" clip-rule="evenodd" d="M9.28574 1.99998C9.45475 1.89076 9.65914 2.07615 9.56688 2.25499L9.31618 2.74097C9.29607 2.77994 9.26866 2.81469 9.23543 2.84331L8.40136 3.5619C8.37197 3.58722 8.34521 3.61543 8.32147 3.64611V3.64611C8.16023 3.85447 8.16023 4.14548 8.32147 4.35384L8.38363 4.43418C8.5503 4.64957 8.5503 4.95039 8.38363 5.16577L8.24059 5.35063C8.13148 5.49163 7.93258 5.52563 7.78283 5.42887V5.42887C7.60006 5.31077 7.35493 5.39037 7.27641 5.59331L7.19789 5.79626C7.14747 5.92656 7.04678 6.03112 6.91846 6.08639L6.31677 6.34558C6.23346 6.38147 6.14372 6.39998 6.05302 6.39998H5.87859C5.69348 6.39998 5.52742 6.51378 5.46062 6.68642V6.68642C5.3581 6.9514 5.03806 7.05532 4.79943 6.90113L4.11954 6.46182C4.05619 6.42089 4.00025 6.3695 3.9541 6.30986L3.52948 5.76112C3.44864 5.65665 3.40479 5.52831 3.40479 5.39622V5.00762C3.40479 4.89294 3.49775 4.79998 3.61243 4.79998V4.79998C3.67669 4.79998 3.73733 4.77023 3.77666 4.71941L4.18647 4.1898C4.27912 4.07007 4.42198 3.99998 4.57337 3.99998V3.99998C4.79649 3.99998 4.99134 3.84901 5.04707 3.63295L5.09534 3.44583C5.18733 3.08919 5.5511 2.87472 5.9077 2.96688L6.62205 3.15151C6.74452 3.18317 6.87346 3.17933 6.99383 3.14044L7.96433 2.82689C8.01963 2.80902 8.07236 2.784 8.12118 2.75246L8.66669 2.39998L9.28574 1.99998V1.99998Z" fill="#E7832C"/>
<path fill-rule="evenodd" clip-rule="evenodd" d="M6.50001 9.59999C6.67096 9.59999 6.80954 9.4209 6.80954 9.19999C6.80954 8.97907 6.67096 8.79999 6.50001 8.79999C6.32907 8.79999 6.19049 8.97907 6.19049 9.19999C6.19049 9.4209 6.32907 9.59999 6.50001 9.59999Z" fill="#445128"/>
<path opacity="0.75" d="M7.42859 8.79998C7.42859 8.79998 8.35716 8.39998 8.66668 7.59998" stroke="#445128" stroke-width="1.33333" stroke-linecap="round"/>
<path opacity="0.75" d="M5.57141 8.79998C5.57141 8.79998 4.64284 8.39998 4.33332 7.59998" stroke="#445128" stroke-width="1.33333" stroke-linecap="round"/>
</g>
</svg>

<svg width="13" height="12" fill="none" xmlns="http://www.w3.org/2000/svg"><rect x=".25" y=".25" width="12.5" height="11.5" rx="1.75" fill="#fff" stroke="#F5F5F5" stroke-width=".5"/><mask id="a" maskUnits="userSpaceOnUse" x="0" y="0" width="13" height="12"><rect x=".25" y=".25" width="12.5" height="11.5" rx="1.75" fill="#fff" stroke="#fff" stroke-width=".5"/></mask><g mask="url(#a)"><path fill-rule="evenodd" clip-rule="evenodd" d="M9.286 2c.169-.11.373.076.28.255l-.25.486a.342.342 0 01-.08.102l-.835.719a.578.578 0 00-.08.792l.063.08a.598.598 0 010 .732l-.143.185a.343.343 0 01-.458.078.343.343 0 00-.507.164l-.078.203a.52.52 0 01-.28.29l-.601.26a.667.667 0 01-.264.054h-.174a.448.448 0 00-.418.286.448.448 0 01-.662.215l-.68-.44a.667.667 0 01-.165-.151l-.424-.55a.596.596 0 01-.124-.365v-.388c0-.115.093-.208.207-.208.065 0 .125-.03.165-.08l.41-.53A.49.49 0 014.572 4a.49.49 0 00.474-.367l.048-.187a.667.667 0 01.813-.48l.714.186a.667.667 0 00.372-.012l.97-.313a.667.667 0 00.157-.075l.546-.352.619-.4z" fill="#E7832C"/><path fill-rule="evenodd" clip-rule="evenodd" d="M6.5 9.6c.171 0 .31-.18.31-.4 0-.22-.139-.4-.31-.4-.17 0-.31.18-.31.4 0 .22.14.4.31.4z" fill="#445128"/><path opacity=".75" d="M7.429 8.8s.928-.4 1.238-1.2M5.571 8.8s-.928-.4-1.238-1.2" stroke="#445128" stroke-width="1.333" stroke-linecap="round"/></g></svg>
